X:1
T:Non potho reposare
T:Non potho reposare
T:Composiz.: G.Rachel 1922 Armonizz.: B Ruiu 1953
C:Rachel 1922
Z:Armonizz: B. Ruiu 1953
%%score 1 2 3 4
L:1/8
Q:1/4=70
M:3/4
K:G
V:1 treble-8 nm="Tenore" snm="T."
V:2 treble-8 nm="Tenore" snm="T."
V:3 bass nm="Baritono" snm="Bar."
V:4 bass nm="Basso" snm="B."
V:1
"^Andante"!p! !>!B2 Bc BA | !>!G4 B2 | !>!d4 e2 | (3!>!efe d4 | !>!c2 cd cB | !>!A4 c2 | !>!e4 f2 | %7
w: Non pot- to re- po-|sa- re~a-|mo- r'e|co- * * ro,|pes- sen- d'a ti- e|so' d'on-|zi mo|
w: No i- ste- s'in tri-|stu- ra|pren- da~'e|o- * * ro,|ne' in di- spi- a-|che- re~o|pes- sa-|
 (3!>!efe d4 :| !>!g2 gg gg | !>!g2 !>!f4 | !>!f2 e3 f | %11
w: men- * * tu.|T'as- si- cu- ro ch'a|ti- e|so- lu- *|
w: men- * * tu.||||
"^Amore meu, prenda d'istimare,\ns'affettu meu a tie solu est dadu.\nS'are juttu sas alas a bolare\nmilli vortas a s'ora ippo volau.\nPro venner nessi pro ti saludare\ns'attera cosa nono a t'abbisare." !>!e2 d2 z2 | %12
w: bra- mo|
w: |
!p! !>!d2 de de | !>!f4 e2 | !>!d4 c2 | (3!>!cdc B4 :| %16
w: ca t'a- mo for- te|t'a- mo,|t'a- mo|t'a- * * mo.|
w: ||||
V:2
!p! !>!G2 GG FF | !>!G4 B2 | !>!d4 c2 | !>!B2 B4 | !>!A2 AA GG | !>!F4 A2 | !>!c4 c2 | !>!B2 B4 :| %8
w: Non pot- to re- po-|sa- re~a-|mo- r'e|co- ro|pes- sen- d'a ti- e|so' d'on-|zi mo|men- tu|
w: No i- ste- s'in tri-|stu- ra|pren- da~'e|o- ro|ne' in di- spi- a-|che- re~o|pes- sa-|men- tu|
 !>!e2 e^d ee | !>!=d2 !>!d4 | !>!c2 c4 | !>!B2 B2 z2 |!p! !>!B2 Bc Bc | !>!d4 c2 | !>!B4 A2 | %15
w: T'as- si- cu- ro ch'a|ti- e|so- lu|bra- mo|ca t'a- mo for- te|t'a- mo,|t'a- mo|
w: |||||||
 (3!>!ABA G4 :| %16
w: t'a- * * mo.|
w: |
V:3
!p! !>!D,2 D,D, D,F, | !>!G,4 G,2 | !>!A,4 F,2 | !>!G,2 G,4 | !>!E,2 E,D, E,G, | !>!F,4 A,2 | %6
w: Non pot- to re- po-|sa- re~a-|mo- r'e|co- ro|pes- sen- d'a ti- e|so' d'on-|
w: No i- ste- s'in tri-|stu- ra|pren- da~'e|o- ro|ne' in di- spi- a-|che- re~o|
 !>!G,4 F,2 | !>!G,2 G,4 :| !>!B,2 G,G, A,A, | !>!B,2 !>!B,4 | !>!G,2 G,4 | !>!G,2 G,2 z2 | %12
w: zi mo|men- tu|T'as- si- cu- ro ch'a|ti- e|so- lu|bra- mo|
w: pes- sa-|men- tu|||||
!p! !>!G,2 G,G, F,F, | !>!B,4 G,2 | !>!F,4 F,2 | !>!D,2 D,4 :| %16
w: ca t'a- mo for- te|t'a- mo,|t'a- mo|t'a- *|
w: ||||
V:4
!p! !>!G,,2 B,,D, F,D, | !>!E,4 G,2 | !>!F,4 D,2 | !>!G,,2 G,,4 | !>!A,,2 A,,A,, C,B,, | %5
w: Non pot- to re- po-|sa- re~a-|mo- r'e|co- ro|pes- sen- d'a ti- e|
w: No i- ste- s'in tri-|stu- ra|pren- da~'e|o- ro|ne' in di- spi- a-|
 !>!D,4 D,2 | !>!E,4 D,2 | !>!G,,2 G,,4 :| !>!G,F, E,^D, E,C, | !>!B,,2 !>!B,,4 | !>!C,2 C,4 | %11
w: so' d'on-|zi mo|men- tu|T'as- si- cu- ro ch'a ti-|e so-|lu bra-|
w: che- re~o|pes- sa-|men- tu||||
 !>!G,,2 G,,2 z2 |!p! !>!G,,2 B,,C, D,C, | !>!B,,4 C,2 | !>!D,4 D,2 | !>!G,,2 G,,4 :| %16
w: mo *|ca t'a- mo for- te|t'a- mo,|t'a- mo|t'a- *|
w: |||||

